img/arrow-62.svg

<svg fill="none" height="16" viewBox="0 0 13 16" width="13" xmlns="http://www.w3.org/2000/svg"><path d="m6.17478 15.3736c.33063.3306.86668.3306 1.19731 0l5.38791-5.38795c.3306-.33062.3306-.86668 0-1.19731s-.8667-.33063-1.1973 0l-4.78926 4.78926-4.78925-4.78926c-.33063-.33063-.86668-.33063-1.197312 0-.330628.33063-.330628.86669 0 1.19731zm1.44528-14.14474c0-.467575-.37904-.846623-.84662-.846623s-.84663.379048-.84663.846623zm0 13.54604v-13.54604h-1.69325v13.54604z" fill="#0080ff"/></svg>

<svg width="13" height="16" viewBox="0 0 13 16" fill="none" xmlns="http://www.w3.org/2000/svg">
<path d="M6.17478 15.3736C6.50541 15.7042 7.04146 15.7042 7.37209 15.3736L12.76 9.98565C13.0906 9.65503 13.0906 9.11897 12.76 8.78834C12.4294 8.45771 11.8933 8.45771 11.5627 8.78834L6.77344 13.5776L1.98419 8.78834C1.65356 8.45771 1.11751 8.45771 0.786878 8.78834C0.45625 9.11897 0.45625 9.65503 0.786878 9.98565L6.17478 15.3736ZM7.62006 1.22886C7.62006 0.761285 7.24102 0.382237 6.77344 0.382237C6.30586 0.382237 5.92681 0.761285 5.92681 1.22886H7.62006ZM7.62006 14.7749L7.62006 1.22886H5.92681L5.92681 14.7749H7.62006Z" fill="#0080FF"/>
</svg>
